X:150
T:Tri Pheth Sydd Hawdd eu Siglo
M:6/8
L:1/8
Q:120
C:Trad. arr. J.T.
R:Jig
N:Derived from the song tune `Ram'
K:D
F2 F F2 F | GAB A3 | FGA AGF | GFE FED | F2 F F2 F |GAB A3|
FGA AGF|GFE D3:||:F2 F FDF|A A2 G2 F|E3 DEF| GFE FED | F2 F FDF|
| A A2 G2 F | E3 DEF | GFE D3 :||
